UNB/img/gas-shop/mastercard.svg

<svg width="73" height="54" viewBox="0 0 73 54" fill="none" xmlns="http://www.w3.org/2000/svg">
<rect width="72.9723" height="53.0862" fill="#F0F7FF"/>
<path fill-rule="evenodd" clip-rule="evenodd" d="M36.8685 37.224C34.3272 39.432 31.0304 40.7649 27.428 40.7649C19.3906 40.7649 12.875 34.1298 12.875 25.945C12.875 17.7602 19.3906 11.1251 27.428 11.1251C31.0304 11.1251 34.3272 12.4581 36.8685 14.666C39.4099 12.4581 42.7066 11.1251 46.309 11.1251C54.3464 11.1251 60.862 17.7602 60.862 25.945C60.862 34.1298 54.3464 40.7649 46.309 40.7649C42.7066 40.7649 39.4099 39.432 36.8685 37.224Z" fill="#ED0006"/>
<path fill-rule="evenodd" clip-rule="evenodd" d="M36.8672 37.2265C39.9966 34.5083 41.981 30.4633 41.981 25.9464C41.981 21.4294 39.9966 17.3845 36.8672 14.6662C39.4084 12.4589 42.7046 11.1265 46.3064 11.1265C54.3438 11.1265 60.8594 17.7616 60.8594 25.9464C60.8594 34.1312 54.3438 40.7663 46.3064 40.7663C42.7046 40.7663 39.4084 39.4338 36.8672 37.2265Z" fill="#F9A000"/>
<path fill-rule="evenodd" clip-rule="evenodd" d="M36.8703 37.2243C39.999 34.5061 41.9828 30.4616 41.9828 25.9453C41.9828 21.429 39.999 17.3846 36.8703 14.6663C33.7416 17.3846 31.7578 21.429 31.7578 25.9453C31.7578 30.4616 33.7416 34.5061 36.8703 37.2243Z" fill="#FF5E00"/>
</svg>

<svg width="73" height="54" fill="none" xmlns="http://www.w3.org/2000/svg"><path fill="#F0F7FF" d="M0 0h72.972v53.086H0z"/><path fill-rule="evenodd" clip-rule="evenodd" d="M36.868 37.224a14.342 14.342 0 01-9.44 3.54c-8.037 0-14.553-6.634-14.553-14.819s6.516-14.82 14.553-14.82c3.602 0 6.9 1.333 9.44 3.541a14.343 14.343 0 019.441-3.54c8.037 0 14.553 6.634 14.553 14.819s-6.516 14.82-14.553 14.82a14.34 14.34 0 01-9.44-3.541z" fill="#ED0006"/><path fill-rule="evenodd" clip-rule="evenodd" d="M36.867 37.227a14.9 14.9 0 005.114-11.28 14.9 14.9 0 00-5.114-11.28 14.342 14.342 0 019.44-3.54c8.037 0 14.552 6.635 14.552 14.82 0 8.184-6.515 14.82-14.553 14.82a14.342 14.342 0 01-9.439-3.54z" fill="#F9A000"/><path fill-rule="evenodd" clip-rule="evenodd" d="M36.87 37.224a14.899 14.899 0 005.113-11.279 14.9 14.9 0 00-5.113-11.279 14.9 14.9 0 00-5.112 11.28c0 4.516 1.984 8.56 5.112 11.278z" fill="#FF5E00"/></svg>
